SVG-Icons/Technical/Grafana/icon-metrics-black.svg

<svg width="24" height="25" viewBox="0 0 24 25" fill="none" xmlns="http://www.w3.org/2000/svg">
<path d="M1 23.2902L7.37 18.0962C7.958 17.6062 8.742 17.4102 9.526 17.5082L14.328 17.9982C14.72 17.9982 15.112 17.9982 15.406 17.9002L22.952 15.8422" stroke="black" stroke-width="1.5" stroke-linecap="round" stroke-linejoin="round"/>
<path d="M1 17.3122L7.664 13.2942C8.154 13.0002 8.644 12.9022 9.134 12.9022H14.328C14.72 12.9022 15.21 12.8042 15.504 12.6082L22.952 9.27625" stroke="black" stroke-width="1.5" stroke-linecap="round" stroke-linejoin="round"/>
<path d="M1 11.4322L8.938 7.51223C9.526 7.21823 10.212 7.12023 10.898 7.31623L14.916 8.19823C15.798 8.39423 16.778 8.19823 17.464 7.51223L22.952 2.61223V23.1922H1V1.24023" stroke="black" stroke-width="1.5" stroke-linecap="round" stroke-linejoin="round"/>
</svg>

<svg xmlns="http://www.w3.org/2000/svg" fill="none" viewBox="0 0 24 25"><path stroke="#000" stroke-linecap="round" stroke-linejoin="round" stroke-width="1.5" d="m1 23.29 6.37-5.194c.588-.49 1.372-.686 2.156-.588l4.802.49c.392 0 .784 0 1.078-.098l7.546-2.058M1 17.312l6.664-4.018c.49-.294.98-.392 1.47-.392h5.194c.392 0 .882-.098 1.176-.294l7.448-3.332"/><path stroke="#000" stroke-linecap="round" stroke-linejoin="round" stroke-width="1.5" d="m1 11.432 7.938-3.92a2.693 2.693 0 0 1 1.96-.196l4.018.882c.882.196 1.862 0 2.548-.686l5.488-4.9v20.58H1V1.24"/></svg>
